src/pos-icons/account-lock.svg

<svg height="24" viewBox="0 0 24 24" width="24" xmlns="http://www.w3.org/2000/svg"><path d="m22 17v-.5c0-1.38-1.12-2.5-2.5-2.5s-2.5 1.12-2.5 2.5v.5c-.55 0-1 .45-1 1v4c0 .55.45 1 1 1h5c.55 0 1-.45 1-1v-4c0-.55-.45-1-1-1m-1 0h-3v-.5c0-.83.67-1.5 1.5-1.5s1.5.67 1.5 1.5zm-13-9c0-2.21 1.79-4 4-4s4 1.79 4 4-1.79 4-4 4-4-1.79-4-4m6 12h-10v-2c0-2.21 3.58-4 8-4 1.27 0 2.46.15 3.53.41-.21.41-.38.84-.46 1.3-.65.55-1.07 1.37-1.07 2.29z"/></svg>

<?xml version="1.0" encoding="UTF-8"?><!DOCTYPE svg PUBLIC "-//W3C//DTD SVG 1.1//EN" "http://www.w3.org/Graphics/SVG/1.1/DTD/svg11.dtd"><svg xmlns="http://www.w3.org/2000/svg" xmlns:xlink="http://www.w3.org/1999/xlink" version="1.1" id="mdi-account-lock" width="24" height="24" viewBox="0 0 24 24"><path d="M22 17V16.5C22 15.12 20.88 14 19.5 14S17 15.12 17 16.5V17C16.45 17 16 17.45 16 18V22C16 22.55 16.45 23 17 23H22C22.55 23 23 22.55 23 22V18C23 17.45 22.55 17 22 17M21 17H18V16.5C18 15.67 18.67 15 19.5 15S21 15.67 21 16.5V17M8 8C8 5.79 9.79 4 12 4S16 5.79 16 8 14.21 12 12 12 8 10.21 8 8M14 20H4V18C4 15.79 7.58 14 12 14C13.27 14 14.46 14.15 15.53 14.41C15.32 14.82 15.15 15.25 15.07 15.71C14.42 16.26 14 17.08 14 18V20Z" /></svg>
